public/images/sponsors/Coles.svg

<svg fill="none" height="86" viewBox="0 0 172 86" width="172" xmlns="http://www.w3.org/2000/svg"><path d="m136.909 41.6716c-.144-2.5413-1.983-3.8841-5.318-3.8841-2.624 0-4.253 1.054-4.253 2.7506 0 1.8888 1.613 2.6415 4.217 3.2452l3.237.7364c5.324 1.2553 8.208 2.8571 8.208 7.7122 0 2.6649-.997 4.8678-2.883 6.3703-1.909 1.5216-4.74 2.3265-8.187 2.3265-6.912 0-10.876-3.385-10.876-9.2861v-.12h5.412l.001.1164c.239 3.1432 2.183 4.671 5.946 4.671 3.131 0 5.077-1.2986 5.077-3.3895 0-1.776-1.324-2.4357-3.928-3.0972l-3.819-.9827c-2.845-.7103-4.744-1.5459-5.977-2.6334-1.355-1.1948-1.987-2.7307-1.987-4.8325 0-2.4095.913-4.4409 2.64-5.8731 1.763-1.461 4.311-2.2335 7.365-2.2335 3.166 0 5.821.7968 7.681 2.3075 1.838 1.4917 2.81 3.5989 2.81 6.0933v.0487h-5.363zm-22.428 6.6789c0-.0018.001-.0027.001-.0045h-14.8617c.5727 4.5276 3.8097 7.3702 7.4297 7.3693h.001c2.675 0 5.14-1.554 6.477-4.1918h5.882c-1.727 5.8803-6.778 9.4747-12.357 9.4729h-.002-.001c-6.906.0018-13.005-5.5013-12.9908-14.0347-.0142-10.2923 7.6758-13.7613 12.9908-13.7631h.001.002c5.314.0018 13.004 3.4708 12.988 13.7631.001.4729-.018.9349-.055 1.3888zm-7.428-10.1479h-.003c-2.494 0-5.892 1.4367-7.085 5.4363h14.171c-1.193-3.9996-4.59-5.4363-7.083-5.4363zm-20.7627-13.3028 5.9895-.0019.0027 35.419-5.9948-.0018zm-15.4514 36.0966c-7.5516 0-13.6747-6.2232-13.6747-13.8994 0-7.6761 6.1231-13.8984 13.6747-13.8984 7.5525 0 13.6746 6.2223 13.6746 13.8984 0 7.6762-6.1221 13.8994-13.6746 13.8994zm0-22.2388c-4.5315 0-8.2044 3.7343-8.2044 8.3394 0 4.6061 3.6729 8.3404 8.2044 8.3404 4.5324 0 8.2053-3.7343 8.2053-8.3404 0-4.6051-3.6729-8.3394-8.2053-8.3394zm-28.1651 16.6798c3.338 0 6.2085-2.0269 7.4901-4.9346h5.7695c-1.4927 6.0292-6.8632 10.4936-13.2596 10.4936-7.5525 0-13.6738-6.2223-13.6738-13.8994 0-7.6761 6.1213-13.8984 13.6738-13.8984 6.3964 0 11.7669 4.4643 13.2596 10.4935h-5.7695c-1.2816-2.9076-4.1521-4.9345-7.4901-4.9345-4.5315 0-8.2045 3.7343-8.2045 8.3394 0 4.6061 3.673 8.3404 8.2045 8.3404z" fill="#e01a22"/></svg>

<svg width="172" height="86" viewBox="0 0 172 86" fill="none" xmlns="http://www.w3.org/2000/svg">
<path d="M136.909 41.6716C136.765 39.1303 134.926 37.7875 131.591 37.7875C128.967 37.7875 127.338 38.8415 127.338 40.5381C127.338 42.4269 128.951 43.1796 131.555 43.7833L134.792 44.5197C140.116 45.775 143 47.3768 143 52.2319C143 54.8968 142.003 57.0997 140.117 58.6022C138.208 60.1238 135.377 60.9287 131.93 60.9287C125.018 60.9287 121.054 57.5437 121.054 51.6426V51.5226H126.466L126.467 51.639C126.706 54.7822 128.65 56.31 132.413 56.31C135.544 56.31 137.49 55.0114 137.49 52.9205C137.49 51.1445 136.166 50.4848 133.562 49.8233L129.743 48.8406C126.898 48.1303 124.999 47.2947 123.766 46.2072C122.411 45.0124 121.779 43.4765 121.779 41.3747C121.779 38.9652 122.692 36.9338 124.419 35.5016C126.182 34.0406 128.73 33.2681 131.784 33.2681C134.95 33.2681 137.605 34.0649 139.465 35.5756C141.303 37.0673 142.275 39.1745 142.275 41.6689V41.7176H136.912L136.909 41.6716ZM114.481 48.3505C114.481 48.3487 114.482 48.3478 114.482 48.346H99.6203C100.193 52.8736 103.43 55.7162 107.05 55.7153H107.051C109.726 55.7153 112.191 54.1613 113.528 51.5235H119.41C117.683 57.4038 112.632 60.9982 107.053 60.9964H107.051H107.05C100.144 60.9982 94.045 55.4951 94.0592 46.9617C94.045 36.6694 101.735 33.2004 107.05 33.1986H107.051H107.053C112.367 33.2004 120.057 36.6694 120.041 46.9617C120.042 47.4346 120.023 47.8966 119.986 48.3505H114.481ZM107.053 38.2026H107.05C104.556 38.2026 101.158 39.6393 99.965 43.6389H114.136C112.943 39.6393 109.546 38.2026 107.053 38.2026ZM86.2903 24.8998L92.2798 24.8979L92.2825 60.3169L86.2877 60.3151L86.2903 24.8998ZM70.8389 60.9964C63.2873 60.9964 57.1642 54.7732 57.1642 47.097C57.1642 39.4209 63.2873 33.1986 70.8389 33.1986C78.3914 33.1986 84.5135 39.4209 84.5135 47.097C84.5135 54.7732 78.3914 60.9964 70.8389 60.9964ZM70.8389 38.7576C66.3074 38.7576 62.6345 42.4919 62.6345 47.097C62.6345 51.7031 66.3074 55.4374 70.8389 55.4374C75.3713 55.4374 79.0442 51.7031 79.0442 47.097C79.0442 42.4919 75.3713 38.7576 70.8389 38.7576ZM42.6738 55.4374C46.0118 55.4374 48.8823 53.4105 50.1639 50.5028H55.9334C54.4407 56.532 49.0702 60.9964 42.6738 60.9964C35.1213 60.9964 29 54.7741 29 47.097C29 39.4209 35.1213 33.1986 42.6738 33.1986C49.0702 33.1986 54.4407 37.6629 55.9334 43.6921H50.1639C48.8823 40.7845 46.0118 38.7576 42.6738 38.7576C38.1423 38.7576 34.4693 42.4919 34.4693 47.097C34.4693 51.7031 38.1423 55.4374 42.6738 55.4374Z" fill="#E01A22"/>
</svg>
